src/main/resources/icons/AspectjIcons/icons/interTypes.svg

<svg xmlns="http://www.w3.org/2000/svg" width="16" height="16" viewBox="0 0 16 16"><rect id="frame" width="16" height="16" fill="none"/><path fill="#6E6E6E" fill-rule="evenodd" d="M11 10H8v1H3V6h5v1h3V5h-1V2h3v3h-1v3H8v1h4v3h1v3h-3v-3h1v-2z"/></svg>

<svg xmlns="http://www.w3.org/2000/svg" width="16" height="16" viewBox="0 0 16 16">
  <path fill="#6E6E6E" fill-rule="evenodd" d="M11,10 L8,10 L8,11 L3,11 L3,6 L8,6 L8,7 L11,7 L11,5 L10,5 L10,2 L13,2 L13,5 L12,5 L12,7 L12,8 L8,8 L8,9 L12,9 L12,10 L12,12 L13,12 L13,15 L10,15 L10,12 L11,12 L11,10 Z"/>
</svg>
